svg/emoji_u1f4a4.svg

<svg width="128" height="128" xmlns="http://www.w3.org/2000/svg"><g fill="#d7598b"><path d="M41.27 100.79c-.66-.41-1.36-.74-2.06-1.07-.83-.41-1.67-.82-2.52-1.18-1.3-.55-2.63-1.07-3.93-1.63-1.58-.68-3.16-1.38-4.74-2.08-3.03-1.33-6.73-4.12-9.17.12-.51.88-1.1 2.11-1.15 3.1-.07 1.64.98 2.47 2.34 3.19 1.4.73 2.83 1.39 4.28 2.02.48.21.96.41 1.45.61.28.12.76.25.7.6-.05.27-.4.47-.62.6-.4.24-.8.45-1.21.68l-.57.3c-1.18.62-2.36 1.24-3.53 1.84-.93.48-1.86.98-2.77 1.51-.38.2-.76.4-1.14.59-1.25.64-2.35 1.38-3.52 2.13l-.46.32c-1.09.8-2.24 1.73-2.49 3.1-.32 1.76.98 2.74 2.48 3.64.53.32 1.08.59 1.66.82l.05.03c1.84 1.01 3.95 1.78 5.97 2.65 1.58.69 3.16 1.38 4.74 2.08 3.03 1.33 6.73 4.12 9.17-.12.51-.88 1.11-2.11 1.15-3.1.07-1.64-.98-2.47-2.34-3.19-1.39-.74-2.83-1.39-4.28-2.02-.32-.13-.64-.27-.96-.4-.22-.09-.63-.18-.77-.36-.35-.42.42-.69.68-.82.85-.41 1.68-.83 2.52-1.27.87-.46 1.76-.89 2.59-1.43.44-.22.88-.43 1.32-.67.94-.5 1.91-.96 2.8-1.57 2.26-1.55 7.38-3.14 6.08-6.73-.25-.74-1.02-1.83-1.75-2.29zM81.23 69.94c-.82-.63-1.7-1.16-2.58-1.7-1.05-.65-2.1-1.31-3.2-1.9-1.65-.9-3.34-1.77-4.98-2.68-2.01-1.12-4.01-2.27-6.02-3.4-3.85-2.17-8.37-6.38-12.18-1.06-.8 1.1-1.75 2.65-1.94 3.96-.32 2.17.96 3.41 2.68 4.55 1.75 1.16 3.57 2.22 5.4 3.25.61.35 1.23.68 1.84 1.01.36.2.98.42.84.9-.09.35-.59.57-.9.71-.55.26-1.12.5-1.69.74-.26.11-.53.22-.79.33-1.65.67-3.3 1.33-4.93 1.96-1.31.51-2.61 1.05-3.89 1.63-.53.21-1.06.43-1.59.63-1.76.69-3.3 1.52-4.97 2.36-.23.11-.43.23-.64.36-1.56.91-3.21 1.99-3.72 3.78-.66 2.3.93 3.77 2.8 5.16.67.5 1.36.93 2.1 1.32l.06.05c2.31 1.59 5.01 2.89 7.58 4.32 2 1.12 4 2.26 6.01 3.39 3.85 2.17 8.37 6.38 12.18 1.07.8-1.1 1.75-2.65 1.95-3.96.31-2.17-.97-3.41-2.67-4.55-1.76-1.17-3.58-2.23-5.41-3.26-.4-.22-.81-.44-1.22-.66-.27-.15-.81-.33-.98-.58-.4-.61.65-.87 1.02-1 1.18-.42 2.35-.88 3.52-1.35 1.21-.49 2.45-.95 3.62-1.55.61-.23 1.23-.46 1.85-.71 1.32-.54 2.67-1.02 3.93-1.71 3.21-1.74 10.22-3.17 8.98-8.11-.27-1.05-1.15-2.59-2.06-3.3zM117.6 21.38c-.41-1.35-1.68-3.35-2.93-4.22-1.13-.79-2.34-1.44-3.55-2.1-1.43-.79-2.89-1.6-4.37-2.32-2.26-1.09-4.55-2.13-6.8-3.24-2.74-1.35-5.48-2.74-8.22-4.1-5.26-2.63-11.55-7.92-16.26-.61-.98 1.51-2.15 3.63-2.31 5.39-.27 2.9 1.5 4.47 3.85 5.88 2.4 1.43 4.89 2.71 7.4 3.96.84.41 1.68.82 2.51 1.22.49.24 1.33.5 1.18 1.14-.1.47-.75.79-1.15 1.01-.72.39-1.47.73-2.2 1.09-.34.17-.69.33-1.03.5-2.14 1-4.29 1.99-6.41 2.93-1.71.77-3.4 1.58-5.06 2.43-.68.31-1.38.64-2.07.95-2.29 1.02-4.29 2.23-6.44 3.46-.29.16-.57.34-.83.52-2.01 1.32-4.13 2.86-4.69 5.26-.73 3.1 1.48 4.94 4.05 6.68.92.62 1.88 1.14 2.88 1.61l.09.06c3.17 1.96 6.84 3.51 10.34 5.23 2.74 1.36 5.48 2.74 8.21 4.11 5.27 2.63 11.55 7.92 16.26.61.98-1.51 2.16-3.63 2.32-5.4.28-2.9-1.5-4.47-3.85-5.87-2.41-1.43-4.89-2.72-7.4-3.97-.55-.27-1.1-.53-1.66-.8-.38-.18-1.1-.38-1.35-.71-.57-.78.82-1.19 1.29-1.39 1.54-.64 3.07-1.32 4.58-2.03 1.58-.74 3.19-1.42 4.72-2.3.8-.35 1.61-.69 2.4-1.06 1.72-.81 3.48-1.54 5.12-2.53 4.15-2.55 13.36-4.91 11.38-11.39z"/></g></svg>

<?xml version="1.0" encoding="UTF-8" standalone="no"?>
<!DOCTYPE svg PUBLIC "-//W3C//DTD SVG 1.1//EN" "http://www.w3.org/Graphics/SVG/1.1/DTD/svg11.dtd">
<svg width="100%" height="100%" viewBox="0 0 128 128" version="1.1" xmlns="http://www.w3.org/2000/svg" xmlns:xlink="http://www.w3.org/1999/xlink" xml:space="preserve" xmlns:serif="http://www.serif.com/" style="fill-rule:evenodd;clip-rule:evenodd;stroke-linejoin:round;stroke-miterlimit:2;">
    <path d="M41.27,100.79C40.61,100.38 39.91,100.05 39.21,99.72C38.38,99.31 37.54,98.9 36.69,98.54C35.39,97.99 34.06,97.47 32.76,96.91C31.18,96.23 29.6,95.53 28.02,94.83C24.99,93.5 21.29,90.71 18.85,94.95C18.34,95.83 17.75,97.06 17.7,98.05C17.63,99.69 18.68,100.52 20.04,101.24C21.44,101.97 22.87,102.63 24.32,103.26C24.8,103.47 25.28,103.67 25.77,103.87C26.05,103.99 26.53,104.12 26.47,104.47C26.42,104.74 26.07,104.94 25.85,105.07C25.45,105.31 25.05,105.52 24.64,105.75L24.07,106.05C22.89,106.67 21.71,107.29 20.54,107.89C19.61,108.37 18.68,108.87 17.77,109.4C17.39,109.6 17.01,109.8 16.63,109.99C15.38,110.63 14.28,111.37 13.11,112.12L12.65,112.44C11.56,113.24 10.41,114.17 10.16,115.54C9.84,117.3 11.14,118.28 12.64,119.18C13.17,119.5 13.72,119.77 14.3,120L14.35,120.03C16.19,121.04 18.3,121.81 20.32,122.68C21.9,123.37 23.48,124.06 25.06,124.76C28.09,126.09 31.79,128.88 34.23,124.64C34.74,123.76 35.34,122.53 35.38,121.54C35.45,119.9 34.4,119.07 33.04,118.35C31.65,117.61 30.21,116.96 28.76,116.33C28.44,116.2 28.12,116.06 27.8,115.93C27.58,115.84 27.17,115.75 27.03,115.57C26.68,115.15 27.45,114.88 27.71,114.75C28.56,114.34 29.39,113.92 30.23,113.48C31.1,113.02 31.99,112.59 32.82,112.05C33.26,111.83 33.7,111.62 34.14,111.38C35.08,110.88 36.05,110.42 36.94,109.81C39.2,108.26 44.32,106.67 43.02,103.08C42.77,102.34 42,101.25 41.27,100.79ZM81.23,69.94C80.41,69.31 79.53,68.78 78.65,68.24C77.6,67.59 76.55,66.93 75.45,66.34C73.8,65.44 72.11,64.57 70.47,63.66C68.46,62.54 66.46,61.39 64.45,60.26C60.6,58.09 56.08,53.88 52.27,59.2C51.47,60.3 50.52,61.85 50.33,63.16C50.01,65.33 51.29,66.57 53.01,67.71C54.76,68.87 56.58,69.93 58.41,70.96C59.02,71.31 59.64,71.64 60.25,71.97C60.61,72.17 61.23,72.39 61.09,72.87C61,73.22 60.5,73.44 60.19,73.58C59.64,73.84 59.07,74.08 58.5,74.32C58.24,74.43 57.97,74.54 57.71,74.65C56.06,75.32 54.41,75.98 52.78,76.61C51.47,77.12 50.17,77.66 48.89,78.24C48.36,78.45 47.83,78.67 47.3,78.87C45.54,79.56 44,80.39 42.33,81.23C42.1,81.34 41.9,81.46 41.69,81.59C40.13,82.5 38.48,83.58 37.97,85.37C37.31,87.67 38.9,89.14 40.77,90.53C41.44,91.03 42.13,91.46 42.87,91.85L42.93,91.9C45.24,93.49 47.94,94.79 50.51,96.22C52.51,97.34 54.51,98.48 56.52,99.61C60.37,101.78 64.89,105.99 68.7,100.68C69.5,99.58 70.45,98.03 70.65,96.72C70.96,94.55 69.68,93.31 67.98,92.17C66.22,91 64.4,89.94 62.57,88.91C62.17,88.69 61.76,88.47 61.35,88.25C61.08,88.1 60.54,87.92 60.37,87.67C59.97,87.06 61.02,86.8 61.39,86.67C62.57,86.25 63.74,85.79 64.91,85.32C66.12,84.83 67.36,84.37 68.53,83.77C69.14,83.54 69.76,83.31 70.38,83.06C71.7,82.52 73.05,82.04 74.31,81.35C77.52,79.61 84.53,78.18 83.29,73.24C83.02,72.19 82.14,70.65 81.23,69.94ZM117.6,21.38C117.19,20.03 115.92,18.03 114.67,17.16C113.54,16.37 112.33,15.72 111.12,15.06C109.69,14.27 108.23,13.46 106.75,12.74C104.49,11.65 102.2,10.61 99.95,9.5C97.21,8.15 94.47,6.76 91.73,5.4C86.47,2.77 80.18,-2.52 75.47,4.79C74.49,6.3 73.32,8.42 73.16,10.18C72.89,13.08 74.66,14.65 77.01,16.06C79.41,17.49 81.9,18.77 84.41,20.02C85.25,20.43 86.09,20.84 86.92,21.24C87.41,21.48 88.25,21.74 88.1,22.38C88,22.85 87.35,23.17 86.95,23.39C86.23,23.78 85.48,24.12 84.75,24.48C84.41,24.65 84.06,24.81 83.72,24.98C81.58,25.98 79.43,26.97 77.31,27.91C75.6,28.68 73.91,29.49 72.25,30.34C71.57,30.65 70.87,30.98 70.18,31.29C67.89,32.31 65.89,33.52 63.74,34.75C63.45,34.91 63.17,35.09 62.91,35.27C60.9,36.59 58.78,38.13 58.22,40.53C57.49,43.63 59.7,45.47 62.27,47.21C63.19,47.83 64.15,48.35 65.15,48.82L65.24,48.88C68.41,50.84 72.08,52.39 75.58,54.11C78.32,55.47 81.06,56.85 83.79,58.22C89.06,60.85 95.34,66.14 100.05,58.83C101.03,57.32 102.21,55.2 102.37,53.43C102.65,50.53 100.87,48.96 98.52,47.56C96.11,46.13 93.63,44.84 91.12,43.59C90.57,43.32 90.02,43.06 89.46,42.79C89.08,42.61 88.36,42.41 88.11,42.08C87.54,41.3 88.93,40.89 89.4,40.69C90.94,40.05 92.47,39.37 93.98,38.66C95.56,37.92 97.17,37.24 98.7,36.36C99.5,36.01 100.31,35.67 101.1,35.3C102.82,34.49 104.58,33.76 106.22,32.77C110.37,30.22 119.58,27.86 117.6,21.38Z" style="fill:rgb(64,192,231);fill-rule:nonzero;"/>
</svg>
